src/layouts/images/logo.svg

<svg width="108" height="53" viewBox="0 0 108 53" version="1.1" xmlns="http://www.w3.org/2000/svg" xmlns:xlink="http://www.w3.org/1999/xlink"><title>Logo</title><desc>Created with Sketch.</desc><defs><ellipse id="path-1" cx="23.1" cy="23.188" rx="23.1" ry="23.188"/></defs><g id="Page-1" stroke="none" stroke-width="1" fill="none" fill-rule="evenodd"><g id="Design-Direction-Sample" transform="translate(-186.000000, -82.000000)"><g id="Logo" transform="translate(186.000000, 82.000000)"><path d="M40.174345,29.2496624 L35.3927999,29.2496624 L34.4281022,32.3933997 L30.8,32.3933997 L35.6654319,18.4681203 L39.9855998,18.4681203 L44.8300599,32.3933997 L41.118071,32.3933997 L40.174345,29.2496624 Z M39.4193642,26.7810901 L38.4127231,23.4474627 L37.8045441,21.2531762 L37.7626008,21.2531762 L37.1963651,23.4263638 L36.1477807,26.7810901 L39.4193642,26.7810901 Z M49.2317845,32.3933997 L45.6246539,32.3933997 L45.6246539,18.4681203 L49.2317845,18.4681203 L49.2317845,32.3933997 Z M44.6622864,41.0369191 L44.6622864,48.5692293 L42.1456838,48.5692293 L42.0408253,46.9235145 C41.2438971,48.1613233 39.9226939,48.7802184 38.0771761,48.7802184 C36.8188685,48.7802184 35.7038848,48.5024189 34.7321917,47.9468115 C33.7604986,47.3912041 33.0020301,46.5753879 32.4567634,45.4993382 C31.9114968,44.4232885 31.6388676,43.1327515 31.6388676,41.6276885 C31.6388676,40.1366915 31.9184873,38.8531875 32.4777351,37.7771378 C33.036983,36.7010881 33.8338992,35.8747224 34.8685077,35.2980161 C35.9031162,34.7213097 37.1264525,34.4329608 38.5385532,34.4329608 C40.1184284,34.4329608 41.3906981,34.7142768 42.3554006,35.2769172 C43.3201032,35.8395575 44.0820669,36.7468015 44.6413147,37.9986763 L41.3068162,39.3279075 C41.1390418,38.6386731 40.8244697,38.1252714 40.3630902,37.7876872 C39.9017107,37.450103 39.3284903,37.2813134 38.6434117,37.2813134 C37.5808408,37.2813134 36.7664484,37.6470242 36.2002099,38.3784567 C35.6339715,39.1098891 35.3508565,40.1859227 35.3508565,41.6065896 C35.3508565,44.5323195 36.4833164,45.9951625 38.7482701,45.9951625 C39.6011231,45.9951625 40.2896867,45.7982413 40.8139815,45.4043931 C41.3382764,45.0105448 41.6004198,44.44088 41.6004198,43.6953815 L41.6004198,43.4843924 L38.1610628,43.4843924 L38.1610628,41.0369191 L44.6622864,41.0369191 Z M53.9504145,38.0408741 L53.5729241,41.0791169 C53.4331121,40.9947208 53.2443688,40.9208754 53.0066885,40.8575784 C52.7690082,40.7942813 52.5173504,40.7626333 52.2517077,40.7626333 C51.5806103,40.7626333 51.0213708,40.9771367 50.5739726,41.40615 C50.1265743,41.8351633 49.9028785,42.4505419 49.9028785,43.2523044 L49.9028785,48.5692293 L46.3376914,48.5692293 L46.3376914,38.0197752 L49.4834447,38.0197752 L49.6302466,40.2984573 C49.8819081,39.4966948 50.2768709,38.8813161 50.815147,38.4523028 C51.353423,38.0232896 52.0210151,37.8087861 52.8179433,37.8087861 C53.2933039,37.8087861 53.6707906,37.886148 53.9504145,38.0408741 Z M63.5216603,39.2540613 C64.4933535,40.217583 64.9791927,41.5643831 64.9791927,43.2945023 C64.9791927,45.0246214 64.4933535,46.3714215 63.5216603,47.3349432 C62.5499672,48.2984648 61.1903163,48.7802184 59.4426668,48.7802184 C57.6950173,48.7802184 56.3353664,48.2984648 55.3636733,47.3349432 C54.3919802,46.3714215 53.9061409,45.0246214 53.9061409,43.2945023 C53.9061409,41.5643831 54.3919802,40.217583 55.3636733,39.2540613 C56.3353664,38.2905397 57.6950173,37.8087861 59.4426668,37.8087861 C61.1903163,37.8087861 62.5499672,38.2905397 63.5216603,39.2540613 Z M57.9536769,41.058018 C57.6321094,41.5221963 57.4713281,42.2676836 57.4713281,43.2945023 C57.4713281,44.3213209 57.6321094,45.0668082 57.9536769,45.5309865 C58.2752444,45.9951648 58.7715694,46.2272505 59.4426668,46.2272505 C60.1137642,46.2272505 60.6100892,45.9951648 60.9316567,45.5309865 C61.2532243,45.0668082 61.4140056,44.3213209 61.4140056,43.2945023 C61.4140056,42.2676836 61.2532243,41.5221963 60.9316567,41.058018 C60.6100892,40.5938397 60.1137642,40.361754 59.4426668,40.361754 C58.7715694,40.361754 58.2752444,40.5938397 57.9536769,41.058018 Z M76.6580933,38.0197752 L76.6580933,48.5692293 L73.4703966,48.5692293 L73.3655381,46.6070308 C72.7084219,48.0558298 71.4990666,48.7802184 69.7374359,48.7802184 C68.6189403,48.7802184 67.7416334,48.4813202 67.105489,47.8835148 C66.4693446,47.2857094 66.1512771,46.3468174 66.1512771,45.0668105 L66.1512771,38.0197752 L69.7164643,38.0197752 L69.7164643,44.1595575 C69.7164643,44.8487919 69.8353026,45.334062 70.072983,45.6153822 C70.3106633,45.8967023 70.6741689,46.0373603 71.1635108,46.0373603 C71.750721,46.0373603 72.2190841,45.8369227 72.568614,45.4360414 C72.9181439,45.0351602 73.0929062,44.4268144 73.0929062,43.6109859 L73.0929062,38.0197752 L76.6580933,38.0197752 Z M88.3160222,39.2435119 C89.0710068,40.2000005 89.4484934,41.5362513 89.4484934,43.2523044 C89.4484934,44.9964896 89.0640163,46.3538391 88.2950505,47.3243937 C87.5260848,48.2949483 86.4705203,48.7802184 85.1283255,48.7802184 C84.3873221,48.7802184 83.747692,48.6043959 83.209416,48.2527457 C82.6711399,47.9010954 82.2552056,47.4158254 81.9616005,46.796921 L81.9616005,53 L78.3964133,53 L78.3964133,38.0197752 L81.521195,38.0197752 L81.6260534,40.2562595 C81.9196585,39.510761 82.3705454,38.916481 82.9787274,38.4734017 C83.5869094,38.0303225 84.3034349,37.8087861 85.1283255,37.8087861 C86.4984827,37.8087861 87.5610377,38.2870233 88.3160222,39.2435119 Z M85.3485282,45.4465909 C85.0059889,45.9107692 84.5201497,46.1428549 83.8909958,46.1428549 C83.2758232,46.1428549 82.8004697,45.9037363 82.464921,45.425492 C82.1293723,44.9472477 81.9616005,44.2720894 81.9616005,43.3999968 L81.9616005,43.1890077 C81.9616005,42.2887831 82.1328675,41.6065919 82.4754068,41.1424136 C82.8179461,40.6782353 83.2898044,40.4461497 83.8909958,40.4461497 C84.5201497,40.4461497 85.0059889,40.6782353 85.3485282,41.1424136 C85.6910675,41.6065919 85.8623346,42.3239476 85.8623346,43.2945023 C85.8623346,44.2650569 85.6910675,44.9824126 85.3485282,45.4465909 Z M37.4148456,0.833603795 C38.6672093,0.833603795 39.7363655,1.01884723 40.6223462,1.38933966 C41.508327,1.75983209 42.331011,2.36187325 43.0904231,3.19548121 L41.1519336,5.41842467 C40.712274,4.75683104 40.1960147,4.27056703 39.6031404,3.95961803 C39.0102661,3.64866902 38.300826,3.49319685 37.4747989,3.49319685 C36.7820019,3.49319685 36.2490892,3.61228192 35.8760446,3.85045562 C35.5030001,4.08862933 35.3164807,4.4061895 35.3164807,4.80314567 C35.3164807,5.13394249 35.5129922,5.40188388 35.9060213,5.60697791 C36.2990503,5.81207193 36.968522,6.00062328 37.9144563,6.17263762 C39.7397098,6.50343443 41.0420153,6.98639053 41.8214119,7.62152041 C42.6008085,8.25665029 42.9905009,9.14978828 42.9905009,10.3009612 C42.9905009,11.1345691 42.7506902,11.8556954 42.2710615,12.4643615 C41.7914329,13.0730276 41.1286226,13.5361362 40.282611,13.8537012 C39.4365993,14.1712661 38.4806871,14.3300462 37.4148456,14.3300462 C35.9226675,14.3300462 34.710291,14.1481107 33.7776797,13.7842342 C32.8450684,13.4203577 32.0390379,12.8613195 31.359564,12.1071027 L33.1181936,9.72537761 C33.6377913,10.4398987 34.2239954,10.9427023 34.8768233,11.2338035 C35.5296512,11.5249047 36.3156975,11.6704531 37.2349857,11.6704531 C37.9677517,11.6704531 38.517318,11.5679077 38.883701,11.3628136 C39.250084,11.1577196 39.4332728,10.8633149 39.4332728,10.4795906 C39.4332728,10.1752575 39.2367612,9.92716361 38.8437322,9.73530146 C38.4507031,9.54343931 37.7945543,9.36150379 36.875266,9.18948945 C35.7428095,8.96454762 34.8068815,8.69660622 34.0674539,8.38565722 C33.3280264,8.07470822 32.7551452,7.65460257 32.3487931,7.12532767 C31.9424411,6.59605278 31.7392681,5.92123741 31.7392681,5.10086132 C31.7392681,4.28048523 31.9624253,3.54612732 32.4087464,2.89776557 C32.8550675,2.24940382 33.5078857,1.74329229 34.3672203,1.3794158 C35.226555,1.01553931 36.24242,0.833603795 37.4148456,0.833603795 Z M51.810295,13.5758332 C51.4772196,13.8007751 51.0542201,13.9827106 50.5412839,14.1216452 C50.0283476,14.2605799 49.5120884,14.3300462 48.9924907,14.3300462 C47.8067421,14.3300462 46.9007904,14.0786444 46.2746085,13.5758332 C45.6484267,13.0730221 45.328679,12.26589 45.315356,11.1544127 L45.315356,6.60928723 L43.5966952,6.60928723 L43.5966952,4.20771439 L45.315356,4.20771439 L45.315356,1.98477094 L48.7127087,1.0519286 L48.7127087,4.20771439 L51.7103729,4.20771439 L51.7103729,6.60928723 L48.7127087,6.60928723 L48.7127087,10.5986768 C48.7127087,11.4852123 49.1523617,11.9284733 50.0316809,11.9284733 C50.5779247,11.9284733 51.0575462,11.7829249 51.4705597,11.4918237 L51.810295,13.5758332 Z M62.868345,4.20771439 L62.868345,14.1315691 L59.830712,14.1315691 L59.7307899,12.2857321 C59.104608,13.648615 57.9521842,14.3300462 56.2734839,14.3300462 C55.2076424,14.3300462 54.3716355,14.0488731 53.7654382,13.4865185 C53.1592408,12.924164 52.8561467,12.0409497 52.8561467,10.8368493 L52.8561467,4.20771439 L56.2534994,4.20771439 L56.2534994,9.98339783 C56.2534994,10.6317596 56.3667434,11.0882523 56.5932347,11.3528898 C56.819726,11.6175272 57.1661193,11.749844 57.632425,11.749844 C58.1919917,11.749844 58.6383061,11.5612926 58.9713816,11.1841842 C59.3044571,10.8070759 59.4709923,10.234806 59.4709923,9.46735738 L59.4709923,4.20771439 L62.868345,4.20771439 Z M75.1054763,0 L75.1054763,14.1315691 L72.0478588,14.1315691 L71.9279522,12.2460367 C71.6348458,12.8943984 71.2051849,13.4038179 70.6389567,13.7743103 C70.0727284,14.1448028 69.4165796,14.3300462 68.6704905,14.3300462 C67.3781577,14.3300462 66.3689542,13.8801693 65.6428497,12.9804019 C64.9167452,12.0806346 64.5536984,10.8236256 64.5536984,9.20933716 C64.5536984,7.56858498 64.9200759,6.29172844 65.6528419,5.37872925 C66.385608,4.46573005 67.3981422,4.0092373 68.690475,4.0092373 C69.3965949,4.0092373 70.0027832,4.17463322 70.5090579,4.50543003 C71.0153326,4.83622684 71.4150171,5.2927196 71.7081235,5.87492198 L71.7081235,0 L75.1054763,0 Z M69.8495718,11.8490825 C70.3958155,11.8490825 70.8321378,11.6539153 71.1585518,11.2635751 C71.4849657,10.8732348 71.6681545,10.3075808 71.7081235,9.56659593 L71.7081235,8.77268755 C71.6681545,8.04493457 71.4849657,7.48258843 71.1585518,7.08563226 C70.8321378,6.68867608 70.3958155,6.49020097 69.8495718,6.49020097 C69.2500359,6.49020097 68.787068,6.70852359 68.460654,7.14517538 C68.1342401,7.58182717 67.9710356,8.25664255 67.9710356,9.16964174 C67.9710356,10.0826409 68.1342401,10.7574563 68.460654,11.1941081 C68.787068,11.6307599 69.2500359,11.8490825 69.8495718,11.8490825 Z M86.9229345,9.03070778 C86.9229345,9.48059144 86.8896275,9.85107831 86.8230124,10.1421795 L80.0083225,10.1421795 C80.1149067,10.7640775 80.3447253,11.2205703 80.6977853,11.5116715 C81.0508453,11.8027726 81.5204746,11.9483211 82.1066874,11.9483211 C82.5996391,11.9483211 83.0026544,11.8556993 83.3157453,11.6704531 C83.6288362,11.4852069 83.8386706,11.2139576 83.9452548,10.856697 L86.7031058,11.7299963 C86.4233224,12.5768361 85.8804176,13.2218802 85.0743749,13.6651479 C84.2683323,14.1084156 83.2791131,14.3300462 82.1066874,14.3300462 C80.361372,14.3300462 79.0257595,13.8801693 78.0998097,12.9804019 C77.1738599,12.0806346 76.7108919,10.8103939 76.7108919,9.16964174 C76.7108919,7.52888956 77.1638678,6.25864886 78.069833,5.35888154 C78.9757983,4.45911421 80.2614503,4.0092373 81.9268276,4.0092373 C83.5389128,4.0092373 84.7746042,4.44919046 85.6339389,5.32910997 C86.4932736,6.20902949 86.9229345,7.44288309 86.9229345,9.03070778 Z M81.9068432,6.37111472 C80.8276787,6.37111472 80.1881834,7.01946674 79.9883381,8.31619024 L83.7454105,8.31619024 C83.5855343,7.01946674 82.9726846,6.37111472 81.9068432,6.37111472 Z M95.0432736,4.0092373 C96.0957921,4.0092373 96.9351297,4.3135658 97.5613115,4.92223193 C98.1874934,5.53089806 98.5005796,6.39757271 98.5005796,7.52228186 L98.5005796,14.1315691 L95.1032269,14.1315691 L95.1032269,8.4551242 C95.1032269,7.78029871 94.9799909,7.30065053 94.733515,7.01616527 C94.4870392,6.73168002 94.1373152,6.58943952 93.6843326,6.58943952 C93.1514118,6.58943952 92.7184202,6.77799087 92.3853448,7.15509924 C92.0522693,7.5322076 91.8857341,8.11109334 91.8857341,8.89177381 L91.8857341,14.1315691 L88.4883813,14.1315691 L88.4883813,4.20771439 L91.5260144,4.20771439 L91.6259365,6.1130945 C91.9456889,5.41180526 92.3986648,4.88584622 92.9848776,4.5352016 C93.5710904,4.18455698 94.2572156,4.0092373 95.0432736,4.0092373 Z M107.8,13.5758332 C107.466925,13.8007751 107.043925,13.9827106 106.530989,14.1216452 C106.018053,14.2605799 105.501793,14.3300462 104.982196,14.3300462 C103.796447,14.3300462 102.890495,14.0786444 102.264314,13.5758332 C101.638132,13.0730221 101.318384,12.26589 101.305061,11.1544127 L101.305061,6.60928723 L99.5864002,6.60928723 L99.5864002,4.20771439 L101.305061,4.20771439 L101.305061,1.98477094 L104.702414,1.0519286 L104.702414,4.20771439 L107.700078,4.20771439 L107.700078,6.60928723 L104.702414,6.60928723 L104.702414,10.5986768 C104.702414,11.4852123 105.142067,11.9284733 106.021386,11.9284733 C106.56763,11.9284733 107.047251,11.7829249 107.460265,11.4918237 L107.8,13.5758332 Z" id="Combined-Shape" fill="#FFF"/><g id="Group-3" stroke-width="1" transform="translate(0.000000, 2.007576)"><mask id="mask-2" fill="#fff"><use xlink:href="#path-1"/></mask><path d="M-1.35882353,0 L21.7411765,0 L21.7411765,1.855 L-1.35882353,1.855 L-1.35882353,0 Z M-1.35882353,3.71 L21.7411765,3.71 L21.7411765,5.565 L-1.35882353,5.565 L-1.35882353,3.71 Z M-1.35882353,7.42 L21.7411765,7.42 L21.7411765,9.275 L-1.35882353,9.275 L-1.35882353,7.42 Z M-1.35882353,11.13 L21.7411765,11.13 L21.7411765,12.985 L-1.35882353,12.985 L-1.35882353,11.13 Z M-1.35882353,14.84 L21.7411765,14.84 L21.7411765,16.695 L-1.35882353,16.695 L-1.35882353,14.84 Z M-1.35882353,18.55 L21.7411765,18.55 L21.7411765,20.405 L-1.35882353,20.405 L-1.35882353,18.55 Z M-1.35882353,22.26 L21.7411765,22.26 L21.7411765,24.115 L-1.35882353,24.115 L-1.35882353,22.26 Z M-1.35882353,25.97 L21.7411765,25.97 L21.7411765,27.825 L-1.35882353,27.825 L-1.35882353,25.97 Z M-1.35882353,29.68 L21.7411765,29.68 L21.7411765,31.535 L-1.35882353,31.535 L-1.35882353,29.68 Z M-1.35882353,33.39 L21.7411765,33.39 L21.7411765,35.245 L-1.35882353,35.245 L-1.35882353,33.39 Z M-1.35882353,37.1 L21.7411765,37.1 L21.7411765,38.955 L-1.35882353,38.955 L-1.35882353,37.1 Z M-1.35882353,40.81 L21.7411765,40.81 L21.7411765,42.665 L-1.35882353,42.665 L-1.35882353,40.81 Z M-1.35882353,44.52 L21.7411765,44.52 L21.7411765,46.375 L-1.35882353,46.375 L-1.35882353,44.52 Z" id="Combined-Shape" fill="#FFF" mask="url(#mask-2)"/></g></g></g></g></svg>

<svg width="108" height="53" xmlns="http://www.w3.org/2000/svg" xmlns:xlink="http://www.w3.org/1999/xlink"><defs><ellipse id="a" cx="23.1" cy="23.188" rx="23.1" ry="23.188"/></defs><g fill="none" fill-rule="evenodd"><path d="M40.174 29.25h-4.781l-.965 3.143H30.8l4.865-13.925h4.32l4.845 13.925h-3.712l-.944-3.143zm-.755-2.469l-1.006-3.334-.608-2.194h-.042l-.567 2.173-1.048 3.355h3.271zm9.813 5.612h-3.607V18.468h3.607v13.925zm-4.57 8.644v7.532h-2.516l-.105-1.645c-.797 1.237-2.118 1.856-3.964 1.856-1.258 0-2.373-.278-3.345-.833-.972-.556-1.73-1.372-2.275-2.448-.546-1.076-.818-2.366-.818-3.871 0-1.491.28-2.775.839-3.85a5.87 5.87 0 0 1 2.39-2.48c1.035-.577 2.258-.865 3.67-.865 1.58 0 2.853.281 3.817.844.965.563 1.727 1.47 2.286 2.722l-3.334 1.329c-.168-.69-.483-1.203-.944-1.54-.461-.338-1.035-.507-1.72-.507-1.062 0-1.877.366-2.443 1.097-.566.732-.85 1.808-.85 3.229 0 2.925 1.133 4.388 3.398 4.388.853 0 1.542-.197 2.066-.59.524-.394.786-.964.786-1.71v-.21h-3.439v-2.448h6.501zm9.288-2.996l-.377 3.038a2.215 2.215 0 0 0-.566-.221 2.923 2.923 0 0 0-.755-.095c-.671 0-1.23.214-1.678.643-.447.43-.671 1.045-.671 1.846v5.317h-3.565V38.02h3.145l.147 2.28c.252-.802.647-1.418 1.185-1.847.538-.429 1.206-.643 2.003-.643.475 0 .853.077 1.132.232zm9.572 1.213c.971.964 1.457 2.31 1.457 4.04s-.486 3.077-1.457 4.04c-.972.964-2.332 1.446-4.08 1.446-1.747 0-3.107-.482-4.078-1.445-.972-.964-1.458-2.31-1.458-4.04s.486-3.077 1.458-4.04c.971-.964 2.331-1.446 4.079-1.446 1.747 0 3.107.482 4.079 1.445zm-5.568 1.804c-.322.464-.483 1.21-.483 2.237 0 1.026.161 1.772.483 2.236.321.464.818.696 1.489.696.67 0 1.167-.232 1.489-.696.321-.464.482-1.21.482-2.236 0-1.027-.16-1.773-.482-2.237-.322-.464-.818-.696-1.49-.696-.67 0-1.167.232-1.488.696zm18.704-3.038v10.55H73.47l-.104-1.963c-.658 1.449-1.867 2.173-3.629 2.173-1.118 0-1.995-.299-2.632-.896-.636-.598-.954-1.537-.954-2.817V38.02h3.565v6.14c0 .689.12 1.174.357 1.455.238.282.601.422 1.09.422.588 0 1.056-.2 1.406-.601.35-.4.524-1.01.524-1.825V38.02h3.565zm11.658 1.224c.755.956 1.132 2.292 1.132 4.008 0 1.744-.384 3.102-1.153 4.072-.769.97-1.824 1.456-3.167 1.456-.74 0-1.38-.176-1.919-.527a3.474 3.474 0 0 1-1.247-1.456V53h-3.566V38.02h3.125l.105 2.236c.294-.745.745-1.34 1.353-1.783.608-.443 1.324-.664 2.15-.664 1.37 0 2.432.478 3.187 1.435zm-2.967 6.203c-.343.464-.829.696-1.458.696-.615 0-1.09-.24-1.426-.718-.336-.478-.503-1.153-.503-2.025v-.211c0-.9.17-1.582.513-2.047.343-.464.815-.696 1.416-.696.63 0 1.115.232 1.458.696.342.465.513 1.182.513 2.153 0 .97-.17 1.687-.513 2.152zM37.415.834c1.252 0 2.321.185 3.207.555.886.37 1.709.973 2.468 1.806l-1.938 2.223c-.44-.661-.956-1.147-1.549-1.458-.593-.311-1.302-.467-2.128-.467-.693 0-1.226.12-1.599.357-.373.239-.56.556-.56.953 0 .33.197.599.59.804.393.205 1.063.394 2.008.566 1.826.33 3.128.813 3.907 1.449.78.635 1.17 1.528 1.17 2.679 0 .834-.24 1.555-.72 2.163-.48.609-1.142 1.072-1.988 1.39-.846.317-1.802.476-2.868.476-1.492 0-2.705-.182-3.637-.546a6.295 6.295 0 0 1-2.418-1.677l1.758-2.382c.52.715 1.106 1.218 1.759 1.509.653.29 1.439.436 2.358.436.733 0 1.282-.102 1.649-.307.366-.205.55-.5.55-.883 0-.305-.197-.553-.59-.745-.393-.192-1.05-.373-1.969-.546-1.132-.224-2.068-.492-2.808-.803-.739-.311-1.312-.731-1.718-1.26-.407-.53-.61-1.205-.61-2.025 0-.82.223-1.555.67-2.203.446-.649 1.099-1.155 1.958-1.519.86-.363 1.875-.545 3.048-.545zM51.81 13.576c-.333.225-.756.407-1.269.546a5.9 5.9 0 0 1-1.549.208c-1.185 0-2.091-.251-2.717-.754-.627-.503-.946-1.31-.96-2.422V6.61h-1.718V4.208h1.718V1.985l3.398-.933v3.156h2.997v2.401h-2.997v3.99c0 .886.44 1.33 1.319 1.33.546 0 1.026-.146 1.439-.437l.34 2.084zm11.058-9.368v9.924h-3.037l-.1-1.846c-.626 1.363-1.779 2.044-3.458 2.044-1.065 0-1.901-.281-2.508-.843-.606-.563-.909-1.446-.909-2.65v-6.63h3.397v5.776c0 .649.114 1.105.34 1.37.227.265.573.397 1.04.397.559 0 1.005-.189 1.338-.566.333-.377.5-.95.5-1.717v-5.26h3.397zM75.105 0v14.132h-3.057l-.12-1.886a3.507 3.507 0 0 1-1.289 1.528c-.566.37-1.222.556-1.969.556-1.292 0-2.301-.45-3.027-1.35-.726-.9-1.09-2.156-1.09-3.77 0-1.641.367-2.918 1.1-3.831.733-.913 1.745-1.37 3.037-1.37.707 0 1.313.166 1.82.496.505.331.905.788 1.198 1.37V0h3.397zM69.85 11.85c.546 0 .982-.196 1.309-.586.326-.39.51-.956.55-1.697v-.794c-.04-.728-.224-1.29-.55-1.687-.327-.397-.763-.596-1.31-.596-.599 0-1.062.219-1.388.655-.327.437-.49 1.112-.49 2.025 0 .913.163 1.587.49 2.024.326.437.789.655 1.389.655zm17.073-2.82c0 .45-.033.821-.1 1.112h-6.815c.107.622.337 1.079.69 1.37.353.29.822.436 1.409.436.493 0 .896-.092 1.209-.278.313-.185.523-.456.63-.813l2.757.873c-.28.847-.823 1.492-1.629 1.935-.806.443-1.795.665-2.967.665-1.746 0-3.081-.45-4.007-1.35-.926-.9-1.39-2.17-1.39-3.81 0-1.641.454-2.911 1.36-3.811.906-.9 2.191-1.35 3.857-1.35 1.612 0 2.848.44 3.707 1.32.86.88 1.289 2.114 1.289 3.702zm-5.016-2.659c-1.08 0-1.719.648-1.919 1.945h3.757c-.16-1.297-.772-1.945-1.838-1.945zM95.043 4.01c1.053 0 1.892.305 2.518.913.626.609.94 1.476.94 2.6v6.61h-3.398V8.455c0-.675-.123-1.154-.37-1.439-.246-.284-.596-.427-1.049-.427-.533 0-.966.189-1.299.566-.333.377-.5.956-.5 1.737v5.24h-3.397V4.208h3.038l.1 1.905c.32-.701.773-1.227 1.359-1.578.586-.35 1.272-.526 2.058-.526zm12.757 9.567c-.333.225-.756.407-1.269.546a5.9 5.9 0 0 1-1.549.208c-1.186 0-2.092-.251-2.718-.754-.626-.503-.946-1.31-.959-2.422V6.61h-1.719V4.208h1.72V1.985l3.396-.933v3.156h2.998v2.401h-2.998v3.99c0 .886.44 1.33 1.32 1.33.546 0 1.025-.146 1.438-.437l.34 2.084z" fill="#FFF"/><g transform="translate(0 2.008)"><mask id="b" fill="#fff"><use xlink:href="#a"/></mask><path d="M-1.359 0h23.1v1.855h-23.1V0zm0 3.71h23.1v1.855h-23.1V3.71zm0 3.71h23.1v1.855h-23.1V7.42zm0 3.71h23.1v1.855h-23.1V11.13zm0 3.71h23.1v1.855h-23.1V14.84zm0 3.71h23.1v1.855h-23.1V18.55zm0 3.71h23.1v1.855h-23.1V22.26zm0 3.71h23.1v1.855h-23.1V25.97zm0 3.71h23.1v1.855h-23.1V29.68zm0 3.71h23.1v1.855h-23.1V33.39zm0 3.71h23.1v1.855h-23.1V37.1zm0 3.71h23.1v1.855h-23.1V40.81zm0 3.71h23.1v1.855h-23.1V44.52z" fill="#FFF" mask="url(#b)"/></g></g></svg>
